X:1
T:The Wreck on the C&O
M:4/4
L:1/8
K:D
 F4 A2 A2| B2 A2 A3 A| E2 E G4 C| D8| GG G4- GF| FF F2 A4| EE E4 F2|\
 A8| z8| A2 A d- d2 d2| B2 A4 F2| EF G4 C2| D6 D2| GG G4 D2| F2- A4 F2|\
 EE G4 C2| D8|
